!!!!SEGMENT: pl-kc--40102-iii-1-saf--002-026_zielenski-mikolaj--communiones-totius-anni-in-festo-s-martini-episcopi-et-confessoris-beatus-servus.krn
!!!cenid: 16xx:1557
!!!COM: Zieleński, Mikołaj
!!!COM-rismID: pe30013481
!!!CDT: <1611->1611
!!!CNT: Polish
!!!GTL: Communiones totius anni
!!!OTL: In festo S. Martini Episcopi et Confessoris/Beatus servus
!!!OMV: 026
!!!PDT: 1611
!!!AGN: Sacred
!!!YEC: Copyright 2022 Narodowy Instytut Fryderyka Chopina (https://polishscores.org)
!!!YEM: License CC-BY-4.0 (https://creativecommons.org/licenses/by/4.0)
!!!SMS-siglum: PL-Kc
!!!SMS-shelfmark: 40102 III/1 Saf.
!!!SMS-shelfwork: 002-026 G
!!!SMS-variant:
!!!SMS-altvar:
!!!NIFC-rismSourceID: 990069887
!!!NIFC-rismChildID: 990069887
!!!NIFC-islandoraID: none
!!!URL-pdf-islandora:
!!!URL-scan: https://cyfrowe.mnk.pl/dlibra/publication/24235/edition/23926/content?ref=desc @EN{Scan on The National Museum in Krakow Website} @PL{Skany w portalu Biblioteka Cyfrowa Muzeum Narodowego w Krakowie}
!!!IIIF:
!!!ONB-nifc: UWAGA: str. 57. Numer w źródle: 30 Uwaga: W xml metrum 2/1 do źródłowego C| i odpowiednio 3/1 do 3/2
!!!AIN: 3 organ
!!!key:
**kern	**kern	**kern
*group1	*group1	*group1
*part3	*part2	*part1
*staff3	*staff2	*staff1
*I""Organo	*I""Organo	*I""Organo
*I''org	*I''org	*I''org
*Iorgan	*Iorgan	*Iorgan
*ICklav	*ICklav	*ICklav
*clefF4	*clefC1	*clefC1
*k[]	*k[]	*k[]
*G:	*G:	*G:
*M2/1	*M2/1	*M2/1
*met(C|)	*met(C|)	*met(C|)
=1	=1	=1
!	!LO:TX:a:t=Beatus ſernus.	!LO:TX:a:t=30. In feſto S. Martini Epiſcopi,& Confeſſoris. Tres voces.
1G	1b	1dd
2.C/	1.cc	1ee
4D/	.	.
=2-	=2-	=2-
4E\	.	4dd\
4F#X\	.	4cc\
1G	4b\	1dd
.	4a\	.
.	2b\	.
2E\	4b\	2ee\
.	[<4b\	.
=3	=3	=3
2A\	4b\]	1cc
!	!LO:SIC:v:s=8an\	!
.	8a#X\	.
!	!LO:SIC:v:s=8g#\	!
.	8g\	.
2AA/	2any\	.
2E\	2b\	2b\
4r	2cc\	2ee\
4C/	.	.
=4-	=4-	=4-
2F\	2a\	2cc\
1D	1dd	1ff
!	!	!LO:SIC:v:s=2dd\
2G\	2b\	2cc\
=5	=5	=5
4C/	4cc\	4ee\
4.C/	2ee\	2gg\
8D\	.	.
8E\	8dd\	8ff\
8F\	8cc\	8ee\
2G\	4b\	4dd\
.	2cc\	4cc\
2GG/	.	2dd\
.	4b\	.
=6-	=6-	=6-
2C/	2cc\	2ee\
2C/	2cc\	2ee\
2.GG/	[y1b	[y1dd
4AA/	.	.
=7	=7	=7
!	!LO:N:xstem:cue:vis=4	!LO:N:xstem:cue:vis=4
4BB/	2b\]	2dd\]
4GG/	.	.
2C/	2a\	2cc\
1GG	1g	1b
=8-	=8-	=8-
2D/	2f#X/	2a\
2AA/	2a\	2cc\
4E\	4g/	4b\
2C/	2cc\	2ee\
4C/	4cc\	4ee\
=9	=9	=9
4F\	4a\	4cc\
4F\	4a\	4cc\
2D/	2dd\	2ff\
2.G\	2.b\	2.dd\
4G\	4b\	4dd\
=10-	=10-	=10-
1C	4cc\	4ee\
.	4.ee\	4.gg\
.	8dd\	8ff\
.	8cc\	8ee\
.	8b\	8dd\
4r	8cc\	8ee\
.	8b\	8dd\
4.F\	8a\	8cc\
.	8g\	8b\
.	4a\	4a\
8E\	.	.
8D/	[y4dd\	[y4ff\
8C/	.	.
=11	=11	=11
!	!LO:N:xstem:cue	!LO:N:xstem:cue
4D/	8dd\]	8ff\]
.	8cc\	8ee\
4.G\	8b\	8dd\
.	8a\	8cc\
.	4b\	4b\
8F\	.	.
8E\	4.cc\	4.ee\
8D/	.	.
4C/	.	.
.	8dd\	8dd\
2AA/	8ee\	8cc\
.	8dd\	8b\
.	8cc\	8a\
.	8b\	8g/
4.D/	8a\	8f#X/
.	8g\	8g/
=12-	=12-	=12-
.	4f#X/	4a\
8C/	.	.
8BB/	4.b\	4.dd\
8AA/	.	.
2GG/	.	.
.	8a\	8cc\
.	2g/	4b\
2D/	.	2a\
.	8f#X/	.
.	8e/	.
2DD/	2f#/	2a\
=13	=13	=13
2.GG/	2g/	2b\
.	2b\	2dd\
4G\	.	.
4.D/	4.dd\	4.ff\
8D/	8dd\	8ff\
4F\	4a\	4cc\
2C/	2cc\	2ee\
=14-	=14-	=14-
.	.	.
4C/	4cc\	4ee\
2G\	2b\	2dd\
2.C/	2cc\	2cc\
.	2cc\	2ee\
4C/	.	.
*custos:GG	*custos:b	*custos:dd
!!LO:LB:g=original
=15	=15	=15
4.GG/	4.b\	4.dd\
8GG/	8b\	8dd\
2.G\	2.b\	2.dd\
2D/	2dd\	2ff\
4D/	2dd\	4ff\
=16-	=16-	=16-
2A\	.	1ee
.	8cc#X\	.
.	8b\	.
2AA/	2cc#\	.
2D/	1dd	1dd
[<2G\	.	.
=17	=17	=17
2G\]	2d/	0r
2E\	2e/	.
2F\	2c/	.
2D/	2d/	.
=18-	=18-	=18-
1C	1e	1r
1G	2d/	2r
.	[<2b\	[<2dd\
=19	=19	=19
0r	2b\]	2dd\]
.	2cc\	2ee\
.	2a\	2cc\
.	2b\	2dd\
=20-	=20-	=20-
1r	1cc	1ee
2r	2b\	2dd\
=!|:	=!|:	=!|:
[<2G\	[<2b\	[<2dd\
=21	=21	=21
2G\]	2b\]	2dd\]
2E\	2cc\	2ee\
2F\	4.a\	4cc\
.	.	4a\
.	8g/	.
2D/	4f/	2.dd\
.	8e/	.
.	8d/	.
=22-	=22-	=22-
2A\	1e	.
.	.	8cc#X\
.	.	8b\
2AA/	.	2cc#\
2D/	2f#X/	[<1dd
2GG/	2g/	.
=23	=23	=23
2G\	4r	1dd]
.	4g/	.
4r	2dd\	.
4GG/	.	.
2G\	4r	4r
.	4b\	4dd\
4r	2dd\	2ff\
4D/	.	.
=24-	=24-	=24-
2F\	4r	4r
.	4.a\	4.cc\
4r	.	.
.	8a\	8cc\
4.C/	4g/	4dd\
.	4cc\	4ee\
8C/	.	.
4C/	4cc\	4ee\
4G\	2b\	2dd\
4GG/	.	.
=25	=25	=25
2D/	4a\	4dd\
.	4.f/	4.a\
2D/	.	.
.	8f/	8a\
.	4f/	4a\
4r	2a\	2cc\
4.AA/	.	.
.	2a\	2cc\
8AA/	.	.
4AA/	.	.
=26-	=26-	=26-
4E\	1g	1b
4E\	.	.
4G\	.	.
4GG/	.	.
2D/	2f#X/	2a\
2BB/	[<2b\	[<2dd\
=27	=27	=27
2BB/	2b\]	2dd\]
2C/	2.a\	2.cc\
2AA/	.	.
.	4a\	4cc\
*	*lig	*lig
2BB/	1dd	1b
=28-	=28-	=28-
2GG/	.	.
2AA/	1cc	1a
2FF#X/	.	.
*	*Xlig	*Xlig
2GG/	2b\	2g/
=29	=29	=29
2D/	2a\	2f#X/
2E\	2.g/	2g/
2D/	.	1a
.	8f#X/	.
.	8e/	.
2DD/	2f#/	.
=30-	=30-	=30-
2GG/	2g/	2.b\
1G	2.g/	.
.	.	4cc\
.	.	4dd\
.	4d/	2dd\
2F\	4fny/	.
.	4f/	4a\
=31	=31	=31
1.E	4g/	4cc\
.	4c/	2cc\
.	4.e/	.
.	.	4g/
.	8f#X/	.
.	2g/	4.b\
.	.	8cc\
2D/	2b\	2dd\
=32-	=32-	=32-
2C/	4cc\	2ee\
.	4a\	.
2BB/	4b\	2dd\
.	4g/	.
4.AA/	4a\	2cc\
.	4f#X/	.
8AA/	.	.
2GG/	2g/	2b\
=33	=33	=33
1.D	4f/	4a\
.	4.b\	4.dd\
.	8a\	8cc\
.	2g/	4b\
.	.	2a\
.	8f#X/	.
.	8e/	.
2DD/	2f#/	2a\
*custos:GG	*custos:g	*custos:b
!!LO:LB:g=original
=34:|!	=34:|!	=34:|!
2GG/	2g/	2b\
2.C/	2.e/	2.cc\
4C/	4e/	4cc\
2BB/	2d/	2dd\
=35	=35	=35
1C	2c/	2.ee\
.	4cc\	.
.	4b\	4dd\
0C	4a\	4cc\
.	4g\	4b\
.	4a\	4cc\
.	4b\	4dd\
=36-	=36-	=36-
.	4cc\	1.ee
.	4g\	.
.	1cc	.
[1GGl	.	.
.	4b\	4dd\
.	4a\	4cc\
=37-	=37-	=37-
0GG]	0bl	0ddl
==	==	==
*-	*-	*-
!!!system-decoration: *
!!!RDF**kern: > = above
!!!RDF**kern: < = below
!!!RDF**kern: l = terminal long
!!!ENC: Filip Voros
!!!END: 2021-12-20
!!!ENC: Andrzej Kubiczek
!!!END: 2021-12-27
